Icons/Dark/NoHeightLimit.svg

<svg xmlns="http://www.w3.org/2000/svg" xml:space="preserve" fill-rule="evenodd" stroke-linejoin="round" stroke-miterlimit="2" clip-rule="evenodd" viewBox="0 0 64 64">
  <g id="grey">
    <path fill="#575757" d="M6.319 11.153h51.362v8H6.319z"/>
    <path fill="#c9c9c9" d="M29.15 28.255V24.5H22l11-11 11 11h-7.15v3.755h-7.7Zm7.7 20.245v6h-7.7v-6h7.7Zm0-5.875v2.75h-7.7v-2.75h7.7Zm0-5.125v2.75h-7.7V37.5h7.7Zm0-6.103v2.75h-7.7v-2.75h7.7Z"/>
  </g>
</svg>

<?xml version="1.0" encoding="UTF-8" standalone="no"?><!DOCTYPE svg PUBLIC "-//W3C//DTD SVG 1.1//EN" "http://www.w3.org/Graphics/SVG/1.1/DTD/svg11.dtd"><svg width="100%" height="100%" viewBox="0 0 64 64" version="1.1" xmlns="http://www.w3.org/2000/svg" xmlns:xlink="http://www.w3.org/1999/xlink" xml:space="preserve" xmlns:serif="http://www.serif.com/" style="fill-rule:evenodd;clip-rule:evenodd;stroke-linejoin:round;stroke-miterlimit:2;"><g id="grey"><rect x="6.319" y="11.153" width="51.362" height="8" style="fill:#575757;"/><path d="M29.15,28.255L29.15,24.5L22,24.5L33,13.5L44,24.5L36.85,24.5L36.85,28.255L29.15,28.255ZM36.85,50L36.85,54.5L29.15,54.5L29.15,50L36.85,50ZM36.85,46.5L36.85,49.25L29.15,49.25L29.15,46.5L36.85,46.5ZM36.85,42.625L36.85,45.375L29.15,45.375L29.15,42.625L36.85,42.625ZM36.85,37.5L36.85,40.25L29.15,40.25L29.15,37.5L36.85,37.5ZM36.85,31.397L36.85,34.147L29.15,34.147L29.15,31.397L36.85,31.397Z" style="fill:#c9c9c9;"/></g></svg>
